; generated by PrusaSlicer 2.8.1+linux-x64-GTK3 on 2024-12-01 at 23:15:10 UTC


;
;
; 

; external perimeters extrusion width = 0.45mm
; perimeters extrusion width = 0.45mm
; infill extrusion width = 0.45mm
; solid infill extrusion width = 0.45mm
; top infill extrusion width = 0.40mm
; support material extrusion width = 0.35mm
; first layer extrusion width = 0.42mm

M73 P0 R182
M73 Q0 S183
M201 X1000 Y1000 Z200 E5000 ; sets maximum accelerations, mm/sec^2
M203 X200 Y200 Z12 E120 ; sets maximum feedrates, mm / sec
M204 S1250 T1250 ; sets acceleration (S) and retract acceleration (R), mm/sec^2
M205 X8.00 Y8.00 Z0.40 E4.50 ; sets the jerk limits, mm/sec
M205 S0 T0 ; sets the minimum extruding and travel feed rate, mm/sec

; printing object cover_plate_A03 id:0 copy 0
; stop printing object cover_plate_A03 id:0 copy 0

;TYPE:Custom
M862.3 P "MK3S" ; printer model check
M862.1 P0.4 ; nozzle diameter check
M115 U3.14.0 ; tell printer latest fw version
G90 ; use absolute coordinates
M83 ; extruder relative mode
M104 S240 ; set extruder temp
M140 S85 ; set bed temp
M190 S85 ; wait for bed temp
M109 S240 ; wait for extruder temp
G28 W ; home all without mesh bed level
G80 X80.2714 Y60.2714 W89.4573 H89.4573 ; mesh bed levelling

G1 Z0.2 F720
G1 Y-3 F1000 ; go outside print area
G92 E0
G1 X60 E9 F1000 ; intro line
G1 X100 E12.5 F1000 ; intro line

G92 E0
M221 S95

; Don't change E values below. Excessive value can damage the printer.
M907 E430 ; set extruder motor current
G21 ; set units to millimeters
G90 ; use absolute coordinates
M83 ; use relative distances for extrusion

M900 K0.08 ; Filament gcode LA 1.5
M900 K45 ; Filament gcode LA 1.0




M107
;LAYER_CHANGE
;Z:0.2
;HEIGHT:0.2
G1 E-1 F2100
G1 Z.4 F720
G1 X85.737 Y77.326 F10800
G1 Z.2 F720
M73 Q0 S182
G1 E1 F2100
M204 S800
;TYPE:Skirt/Brim
;WIDTH:0.42
G1 F1200
G1 X97.326 Y65.737 E.51388
G1 X97.894 Y65.327 E.02196
G1 X102.817 Y62.89 E.17223
G1 X109.77 Y60.572 E.2298
G1 X110.462 Y60.46 E.02198
G1 X139.538 Y60.46 E.91166
G1 X140.23 Y60.572 E.02198
G1 X147.47 Y63.009 E.23952
G1 X152.106 Y65.327 E.16252
G1 X152.674 Y65.737 E.02196
G1 X164.264 Y77.326 E.5139
G1 X164.673 Y77.894 E.02195
G1 X167.11 Y82.817 E.17223
G1 X169.428 Y89.77 E.2298
G1 X169.54 Y90.462 E.02198
G1 X169.54 Y119.538 E.91166
G1 X169.428 Y120.23 E.02198
G1 X166.991 Y127.47 E.23952
G1 X164.673 Y132.106 E.16252
G1 X164.264 Y132.674 E.02195
G1 X152.674 Y144.264 E.51392
G1 X152.106 Y144.673 E.02195
G1 X147.47 Y146.991 E.16252
G1 X140.23 Y149.428 E.23952
G1 X139.538 Y149.54 E.02198
G1 X110.462 Y149.54 E.91166
G1 X109.77 Y149.428 E.02198
G1 X102.53 Y146.991 E.23952
G1 X97.894 Y144.673 E.16252
G1 X97.326 Y144.264 E.02195
G1 X85.737 Y132.674 E.5139
G1 X85.327 Y132.106 E.02196
G1 X83.009 Y127.47 E.16252
G1 X80.572 Y120.23 E.23952
G1 X80.46 Y119.538 E.02198
G1 X80.46 Y90.462 E.91166
G1 X80.572 Y89.77 E.02198
G1 X83.009 Y82.53 E.23952
G1 X85.327 Y77.894 E.16252
G1 X85.701 Y77.374 E.02008
M204 S1000
;WIPE_START
G1 F8640
G1 X85.737 Y77.326 E-.01385
G1 X88.757 Y74.306 E-.98615
;WIPE_END
G1 Z.4 F720
; printing object cover_plate_A03 id:0 copy 0
G1 X139.538 Y64.966 F10800
G1 Z.2 F720
G1 E1 F2100
M204 S800
;TYPE:Support material
G1 F1200
G1 X146.491 Y64.966 E.21801
G1 X146.491 Y67.284 E.07268
G1 X151.127 Y67.284 E.14536
G1 X151.127 Y69.602 E.07268
G1 X153.445 Y69.602 E.07268
G1 X153.445 Y71.92 E.07268
G1 X155.763 Y71.92 E.07268
G1 X155.763 Y74.237 E.07265
G1 X158.08 Y74.237 E.07265
G1 X158.08 Y76.555 E.07268
G1 X160.398 Y76.555 E.07268
G1 X160.398 Y78.873 E.07268
G1 X162.716 Y78.873 E.07268
G1 X162.716 Y83.509 E.14536
G1 X165.034 Y83.509 E.07268
G1 X165.034 Y90.462 E.21801
G1 X167.352 Y90.462 E.07268
G1 X167.352 Y119.538 E.91166
G1 X165.034 Y119.538 E.07268
G1 X165.034 Y126.491 E.21801
G1 X162.716 Y126.491 E.07268
G1 X162.716 Y131.127 E.14536
G1 X160.398 Y131.127 E.07268
G1 X160.398 Y133.445 E.07268
G1 X158.08 Y133.445 E.07268
G1 X158.08 Y135.763 E.07268
G1 X155.763 Y135.763 E.07265
G1 X155.763 Y138.08 E.07265
G1 X153.445 Y138.08 E.07268
G1 X153.445 Y140.398 E.07268
G1 X151.127 Y140.398 E.07268
G1 X151.127 Y142.716 E.07268
G1 X146.491 Y142.716 E.14536
G1 X146.491 Y145.034 E.07268
G1 X139.538 Y145.034 E.21801
G1 X139.538 Y147.352 E.07268
G1 X110.462 Y147.352 E.91166
G1 X110.462 Y145.034 E.07268
M73 P0 R181
G1 X103.509 Y145.034 E.21801
G1 X103.509 Y142.716 E.07268
G1 X98.873 Y142.716 E.14536
G1 X98.873 Y140.398 E.07268
G1 X96.555 Y140.398 E.07268
G1 X96.555 Y138.08 E.07268
G1 X94.237 Y138.08 E.07268
G1 X94.237 Y135.763 E.07265
G1 X91.92 Y135.763 E.07265
G1 X91.92 Y133.445 E.07268
G1 X89.602 Y133.445 E.07268
G1 X89.602 Y131.127 E.07268
G1 X87.284 Y131.127 E.07268
G1 X87.284 Y126.491 E.14536
G1 X84.966 Y126.491 E.07268
G1 X84.966 Y119.538 E.21801
G1 X82.648 Y119.538 E.07268
G1 X82.648 Y90.462 E.91166
G1 X84.966 Y90.462 E.07268
G1 X84.966 Y83.509 E.21801
G1 X87.284 Y83.509 E.07268
G1 X87.284 Y78.873 E.14536
G1 X89.602 Y78.873 E.07268
G1 X89.602 Y76.555 E.07268
G1 X91.92 Y76.555 E.07268
G1 X91.92 Y74.237 E.07268
G1 X94.237 Y74.237 E.07265
G1 X94.237 Y71.92 E.07265
G1 X96.555 Y71.92 E.07268
G1 X96.555 Y69.602 E.07268
G1 X98.873 Y69.602 E.07268
G1 X98.873 Y67.284 E.07268
G1 X103.509 Y67.284 E.14536
G1 X103.509 Y64.966 E.07268
G1 X110.462 Y64.966 E.21801
G1 X110.462 Y62.648 E.07268
G1 X139.538 Y62.648 E.91166
G1 X139.538 Y64.91 E.07092
M204 S1000
G1 X139.538 Y64.91 F10800
G1 X124.072 Y67.532
M204 S800
G1 F1200
G1 X127.807 Y67.625 E.11714
G1 X131.502 Y68.088 E.11676
G1 X135.145 Y68.919 E.11716
G1 X138.687 Y70.109 E.11716
G1 X142.093 Y71.645 E.11715
G1 X145.33 Y73.513 E.11718
G1 X148.364 Y75.693 E.11714
G1 X151.166 Y78.165 E.11716
G1 X153.707 Y80.904 E.11714
G1 X155.964 Y83.882 E.11716
G1 X157.913 Y87.07 E.11716
G1 X159.535 Y90.436 E.11715
G1 X160.813 Y93.947 E.11715
G1 X161.736 Y97.568 E.11716
G1 X162.293 Y101.262 E.11713
G1 X162.48 Y104.994 E.11716
G1 X162.294 Y108.726 E.11716
G1 X161.738 Y112.421 E.11716
G1 X160.817 Y116.042 E.11715
G1 X159.539 Y119.553 E.11715
G1 X157.919 Y122.92 E.11715
G1 X156.978 Y124.549 E.05899
G1 X154.873 Y127.635 E.11713
G1 X152.471 Y130.497 E.11715
G1 X149.796 Y133.106 E.11716
G1 X146.874 Y135.435 E.11716
G1 X143.745 Y137.456 E.11679
G1 X140.42 Y139.161 E.11716
G1 X136.943 Y140.526 E.11712
G1 X133.346 Y141.539 E.11717
G1 X129.666 Y142.188 E.11716
G1 X125.94 Y142.468 E.11716
G1 X122.205 Y142.376 E.11714
G1 X118.498 Y141.912 E.11714
G1 X114.855 Y141.081 E.11716
G1 X111.313 Y139.891 E.11716
G1 X107.907 Y138.355 E.11715
G1 X104.67 Y136.487 E.11718
G1 X101.636 Y134.307 E.11714
G1 X98.834 Y131.835 E.11716
G1 X96.293 Y129.096 E.11714
G1 X94.036 Y126.118 E.11716
G1 X92.087 Y122.93 E.11716
G1 X90.465 Y119.564 E.11715
G1 X89.187 Y116.053 E.11715
G1 X88.677 Y114.243 E.05896
G1 X87.938 Y110.58 E.11716
G1 X87.566 Y106.862 E.11716
G1 X87.566 Y103.138 E.11676
G1 X87.938 Y99.42 E.11716
G1 X88.677 Y95.757 E.11716
G1 X89.778 Y92.187 E.11714
G1 X91.229 Y88.743 E.11718
G1 X93.016 Y85.462 E.11714
G1 X95.12 Y82.374 E.11716
G1 X97.521 Y79.512 E.11713
G1 X100.196 Y76.902 E.11718
G1 X103.116 Y74.572 E.11713
G1 X106.255 Y72.544 E.11717
G1 X109.58 Y70.839 E.11716
G1 X113.057 Y69.474 E.11712
G1 X116.654 Y68.461 E.11717
G1 X120.334 Y67.812 E.11716
G1 X124.015 Y67.534 E.11574
M204 S1000
;WIPE_START
G1 F8640
G1 X120.334 Y67.812 E-.85237
G1 X119.704 Y67.923 E-.14763
;WIPE_END
G1 Z.4 F720
G1 X166.898 Y119.368 F10800
G1 Z.2 F720
G1 E1 F2100
M204 S800
G1 F1200
G1 X166.898 Y90.802 E.89567
G1 X166.479 Y90.802 E.01314
G1 X166.479 Y119.199 E.89037
G1 X166.06 Y119.199 E.01314
G1 X166.06 Y90.802 E.89037
G1 X165.641 Y90.802 E.01314
G1 X165.641 Y119.199 E.89037
G1 X165.222 Y119.199 E.01314
G1 X165.222 Y90.802 E.89037
G1 X164.803 Y90.802 E.01314
G1 X164.803 Y119.199 E.89037
G1 X164.694 Y119.199 E.00342
G1 X164.694 Y126.152 E.21801
G1 X164.384 Y126.152 E.00972
G1 X164.384 Y83.848 E1.32641
G1 X163.965 Y83.848 E.01314
G1 X163.965 Y126.152 E1.32641
G1 X163.546 Y126.152 E.01314
M73 Q0 S181
G1 X163.546 Y83.848 E1.32641
G1 X163.127 Y83.848 E.01314
G1 X163.127 Y126.152 E1.32641
G1 X162.708 Y126.152 E.01314
G1 X162.708 Y83.848 E1.32641
G1 X162.377 Y83.848 E.01038
G1 X162.377 Y79.212 E.14536
G1 X162.289 Y79.212 E.00276
G1 X162.289 Y98.749 E.61257
G1 X161.87 Y96.631 E.0677
G1 X161.87 Y79.212 E.54616
G1 X161.451 Y79.212 E.01314
G1 X161.451 Y94.96 E.49377
G1 X161.032 Y93.533 E.04663
G1 X161.032 Y79.212 E.44902
G1 X160.613 Y79.212 E.01314
G1 X160.613 Y92.286 E.40993
G1 X160.194 Y91.187 E.03688
G1 X160.194 Y79.212 E.37547
G1 X160.059 Y79.212 E.00423
G1 X160.059 Y76.895 E.07265
G1 X159.775 Y76.895 E.0089
G1 X159.775 Y90.144 E.41541
G1 X159.356 Y89.215 E.03195
G1 X159.356 Y76.895 E.38628
G1 X158.937 Y76.895 E.01314
G1 X158.937 Y88.323 E.35832
G1 X158.518 Y87.506 E.02879
G1 X158.518 Y76.895 E.3327
G1 X158.099 Y76.895 E.01314
G1 X158.099 Y86.714 E.30787
G1 X157.68 Y85.988 E.02628
G1 X157.68 Y74.577 E.35778
G1 X157.261 Y74.577 E.01314
G1 X157.261 Y85.264 E.33508
G1 X156.842 Y84.615 E.02422
G1 X156.842 Y74.577 E.31473
G1 X156.423 Y74.577 E.01314
G1 X156.423 Y83.967 E.29442
G1 X156.004 Y83.356 E.02323
G1 X156.004 Y74.577 E.27526
G1 X155.585 Y74.577 E.01314
G1 X155.585 Y82.774 E.25701
G1 X155.166 Y82.191 E.02251
G1 X155.166 Y72.259 E.31141
G1 X154.747 Y72.259 E.01314
G1 X154.747 Y81.663 E.29486
G1 X154.328 Y81.138 E.02106
G1 X154.328 Y72.259 E.27839
G1 X153.909 Y72.259 E.01314
G1 X153.909 Y80.62 E.26215
G1 X153.49 Y80.145 E.01986
G1 X153.49 Y72.259 E.24726
G1 X153.105 Y72.259 E.01207
G1 X153.105 Y69.941 E.07268
G1 X153.071 Y79.67 E.30505
G1 X152.652 Y79.203 E.01967
G1 X152.652 Y69.941 E.2904
G1 X152.234 Y69.941 E.01311
G1 X152.234 Y78.773 E.27692
G1 X151.815 Y78.344 E.0188
G1 X151.815 Y69.941 E.26347
G1 X151.396 Y69.941 E.01314
G1 X151.396 Y77.915 E.25002
G1 X150.977 Y77.527 E.01791
G1 X150.977 Y69.941 E.23785
G1 X150.788 Y69.941 E.00593
G1 X150.788 Y67.623 E.07268
G1 X150.558 Y67.623 E.00721
G1 X150.558 Y77.138 E.29834
G1 X150.139 Y76.749 E.01793
G1 X150.139 Y67.623 E.28614
G1 X149.72 Y67.623 E.01314
M73 P0 R180
G1 X149.72 Y76.388 E.27482
G1 X149.301 Y76.036 E.01716
G1 X149.301 Y67.623 E.26378
G1 X148.882 Y67.623 E.01314
G1 X148.882 Y75.684 E.25275
G1 X148.463 Y75.342 E.01696
G1 X148.463 Y67.623 E.24202
G1 X148.044 Y67.623 E.01314
G1 X148.044 Y75.025 E.23208
G1 X147.625 Y74.708 E.01647
G1 X147.625 Y67.623 E.22215
G1 X147.206 Y67.623 E.01314
G1 X147.206 Y74.39 E.21217
G1 X146.787 Y74.095 E.01607
G1 X146.787 Y67.623 E.20293
G1 X146.368 Y67.623 E.01314
G1 X146.368 Y73.809 E.19396
G1 X145.949 Y73.524 E.01589
G1 X145.949 Y65.306 E.25767
G1 X145.53 Y65.306 E.01314
G1 X145.53 Y73.238 E.2487
G1 X145.111 Y72.981 E.01541
G1 X145.111 Y65.306 E.24064
G1 X144.692 Y65.306 E.01314
G1 X144.692 Y72.725 E.23262
G1 X144.273 Y72.469 E.0154
G1 X144.273 Y65.306 E.22459
G1 X143.854 Y65.306 E.01314
G1 X143.854 Y72.217 E.21669
G1 X143.435 Y71.989 E.01496
G1 X143.435 Y65.306 E.20954
G1 X143.016 Y65.306 E.01314
G1 X143.016 Y71.761 E.20239
G1 X142.597 Y71.532 E.01497
G1 X142.597 Y65.306 E.19521
G1 X142.178 Y65.306 E.01314
G1 X142.178 Y71.309 E.18822
G1 X141.759 Y71.107 E.01458
G1 X141.759 Y65.306 E.18189
G1 X141.34 Y65.306 E.01314
G1 X141.34 Y70.905 E.17555
G1 X140.921 Y70.704 E.01457
G1 X140.921 Y65.306 E.16925
G1 X140.502 Y65.306 E.01314
G1 X140.502 Y70.505 E.16301
G1 X140.083 Y70.328 E.01426
G1 X140.083 Y65.306 E.15746
G1 X139.664 Y65.306 E.01314
G1 X139.664 Y70.152 E.15194
G1 X139.245 Y69.975 E.01426
G1 X139.199 Y62.988 E.21908
G1 X138.826 Y62.988 E.0117
G1 X138.826 Y69.799 E.21355
G1 X138.407 Y69.646 E.01399
G1 X138.407 Y62.988 E.20876
G1 X137.988 Y62.988 E.01314
G1 X137.988 Y69.493 E.20396
G1 X137.569 Y69.341 E.01398
G1 X137.569 Y62.988 E.19919
G1 X137.15 Y62.988 E.01314
G1 X137.15 Y69.188 E.1944
G1 X136.731 Y69.053 E.0138
G1 X136.731 Y62.988 E.19016
G1 X136.312 Y62.988 E.01314
G1 X136.312 Y68.924 E.18612
G1 X135.893 Y68.795 E.01375
G1 X135.893 Y62.988 E.18207
G1 X135.474 Y62.988 E.01314
G1 X135.474 Y68.665 E.178
G1 X135.055 Y68.546 E.01366
G1 X135.055 Y62.988 E.17427
G1 X134.636 Y62.988 E.01314
G1 X134.636 Y68.439 E.17091
G1 X134.217 Y68.333 E.01355
G1 X134.217 Y62.988 E.16759
G1 X133.799 Y62.988 E.01311
G1 X133.799 Y68.226 E.16423
G1 X133.38 Y68.121 E.01354
G1 X133.38 Y62.988 E.16094
G1 X132.961 Y62.988 E.01314
G1 X132.961 Y68.037 E.15831
G1 X132.542 Y67.952 E.01341
G1 X132.542 Y62.988 E.15564
G1 X132.123 Y62.988 E.01314
G1 X132.123 Y67.867 E.15298
G1 X131.704 Y67.782 E.01341
G1 X131.704 Y62.988 E.15031
G1 X131.285 Y62.988 E.01314
G1 X131.285 Y67.712 E.14812
G1 X130.866 Y67.649 E.01329
G1 X130.866 Y62.988 E.14614
G1 X130.447 Y62.988 E.01314
G1 X130.447 Y67.586 E.14417
G1 X130.028 Y67.523 E.01329
G1 X130.028 Y62.988 E.14219
G1 X129.609 Y62.988 E.01314
G1 X129.609 Y67.464 E.14034
G1 X129.19 Y67.423 E.0132
G1 X129.19 Y62.988 E.13906
G1 X128.771 Y62.988 E.01314
G1 X128.771 Y67.381 E.13774
G1 X128.352 Y67.339 E.0132
G1 X128.352 Y62.988 E.13642
G1 X127.933 Y62.988 E.01314
G1 X127.933 Y67.297 E.13511
G1 X127.514 Y67.271 E.01316
G1 X127.514 Y62.988 E.13429
G1 X127.095 Y62.988 E.01314
M73 Q1 S181
G1 X127.095 Y67.25 E.13363
G1 X126.676 Y67.229 E.01315
M73 P1 R180
G1 X126.676 Y62.988 E.13297
G1 X126.257 Y62.988 E.01314
G1 X126.257 Y67.208 E.13232
G1 X125.838 Y67.192 E.01315
G1 X125.838 Y62.988 E.13181
G1 X125.419 Y62.988 E.01314
G1 X125.419 Y67.192 E.13181
G1 X125 Y67.192 E.01314
G1 X125 Y62.988 E.13181
G1 X124.581 Y62.988 E.01314
G1 X124.581 Y67.192 E.13181
G1 X124.162 Y67.192 E.01314
G1 X124.162 Y62.988 E.13181
G1 X123.743 Y62.988 E.01314
G1 X123.743 Y67.208 E.13232
G1 X123.324 Y67.229 E.01315
G1 X123.324 Y62.988 E.13297
G1 X122.905 Y62.988 E.01314
G1 X122.905 Y67.25 E.13363
G1 X122.486 Y67.271 E.01315
G1 X122.486 Y62.988 E.13429
G1 X122.067 Y62.988 E.01314
G1 X122.067 Y67.297 E.13511
G1 X121.648 Y67.339 E.0132
G1 X121.648 Y62.988 E.13642
G1 X121.229 Y62.988 E.01314
G1 X121.229 Y67.381 E.13774
G1 X120.81 Y67.423 E.0132
G1 X120.81 Y62.988 E.13906
G1 X120.391 Y62.988 E.01314
G1 X120.391 Y67.464 E.14034
G1 X119.972 Y67.523 E.01327
G1 X119.972 Y62.988 E.14219
G1 X119.553 Y62.988 E.01314
G1 X119.553 Y67.586 E.14417
G1 X119.134 Y67.649 E.01329
G1 X119.134 Y62.988 E.14614
G1 X118.715 Y62.988 E.01314
G1 X118.715 Y67.712 E.14812
G1 X118.296 Y67.782 E.01332
G1 X118.296 Y62.988 E.15031
G1 X117.877 Y62.988 E.01314
G1 X117.877 Y67.867 E.15298
G1 X117.458 Y67.952 E.01341
G1 X117.458 Y62.988 E.15564
G1 X117.039 Y62.988 E.01314
G1 X117.039 Y68.037 E.15831
G1 X116.62 Y68.121 E.0134
G1 X116.62 Y62.988 E.16094
G1 X116.201 Y62.988 E.01314
G1 X116.201 Y68.226 E.16423
G1 X115.783 Y68.333 E.01353
G1 X115.783 Y62.988 E.16759
G1 X115.364 Y62.988 E.01314
G1 X115.364 Y68.439 E.17091
G1 X114.945 Y68.546 E.01356
G1 X114.945 Y62.988 E.17427
G1 X114.526 Y62.988 E.01314
G1 X114.526 Y68.665 E.178
G1 X114.107 Y68.795 E.01376
G1 X114.107 Y62.988 E.18207
G1 X113.688 Y62.988 E.01314
G1 X113.688 Y68.924 E.18612
G1 X113.269 Y69.053 E.01375
G1 X113.269 Y62.988 E.19016
G1 X112.85 Y62.988 E.01314
G1 X112.85 Y69.188 E.1944
G1 X112.431 Y69.341 E.01399
G1 X112.431 Y62.988 E.19919
G1 X112.012 Y62.988 E.01314
G1 X112.012 Y69.493 E.20396
G1 X111.593 Y69.646 E.01399
G1 X111.593 Y62.988 E.20876
G1 X111.174 Y62.988 E.01314
G1 X111.174 Y69.799 E.21355
G1 X110.755 Y69.975 E.01425
G1 X110.755 Y65.306 E.14639
G1 X110.336 Y65.306 E.01314
G1 X110.336 Y70.152 E.15194
G1 X109.917 Y70.328 E.01425
G1 X109.917 Y65.306 E.15746
G1 X109.498 Y65.306 E.01314
G1 X109.498 Y70.505 E.16301
G1 X109.079 Y70.704 E.01454
G1 X109.079 Y65.306 E.16925
G1 X108.66 Y65.306 E.01314
G1 X108.66 Y70.905 E.17555
G1 X108.241 Y71.107 E.01458
G1 X108.241 Y65.306 E.18189
G1 X107.822 Y65.306 E.01314
G1 X107.822 Y71.309 E.18822
G1 X107.403 Y71.532 E.01488
G1 X107.403 Y65.306 E.19521
G1 X106.984 Y65.306 E.01314
G1 X106.984 Y71.761 E.20239
G1 X106.565 Y71.989 E.01496
G1 X106.565 Y65.306 E.20954
G1 X106.146 Y65.306 E.01314
G1 X106.146 Y72.217 E.21669
G1 X105.727 Y72.469 E.01533
G1 X105.727 Y65.306 E.22459
G1 X105.308 Y65.306 E.01314
G1 X105.308 Y72.725 E.23262
G1 X104.889 Y72.981 E.0154
G1 X104.889 Y65.306 E.24064
G1 X104.47 Y65.306 E.01314
G1 X104.47 Y73.238 E.2487
